X:210
T:Bush on the Hill, The
T:Lowdown Jig, The
R:jig
Z:id:hn-jig-210
M:6/8
K:G
~G,3 DB,D|GFG Bdg|edc BcA|BGE EDB,|
~G,3 DB,D|GFG Bdg|edc BcA|1 BGF GDB,:|2 BGF GdB||
|:GBd gfg|ece dBA|cBc dBG|BAA ABA|
GBd gfg|ece dBA|cBc dcA|1 AGF GdB:|2 AGF GDB,||

